src/assets/filled/Icon1.svg

<svg width="24" height="24" viewBox="0 0 24 24"  xmlns="http://www.w3.org/2000/svg">
<path d="M16.19 2H7.82002C4.18002 2 2.01001 4.17 2.01001 7.81V16.18C2.01001 19.82 4.18002 21.99 7.82002 21.99H16.19C19.83 21.99 22 19.82 22 16.18V7.81C22 4.17 19.83 2 16.19 2ZM11 7.5C11 7.78 10.78 8 10.5 8H9.00002C8.45002 8 8.00002 8.45 8.00002 9V10.5C8.00002 10.78 7.78002 11 7.50002 11H5.50002C5.22002 11 5.00002 10.78 5.00002 10.5V9C5.00002 6.79 6.79002 5 9.00002 5H10.5C10.78 5 11 5.22 11 5.5V7.5ZM19 15C19 17.21 17.21 19 15 19H13.5C13.22 19 13 18.78 13 18.5V16.5C13 16.22 13.22 16 13.5 16H15C15.55 16 16 15.55 16 15V13.5C16 13.22 16.22 13 16.5 13H18.5C18.78 13 19 13.22 19 13.5V15Z" />
</svg>

<?xml version="1.0" encoding="UTF-8"?>
<svg width="24" height="24" viewBox="0 0 24 24" xmlns="http://www.w3.org/2000/svg">
 <path d="m16.19 2h-8.37c-3.64 0-5.81 2.17-5.81 5.81v8.37c0 3.64 2.17 5.81 5.81 5.81h8.37c3.64 0 5.81-2.17 5.81-5.81v-8.37c0-3.64-2.17-5.81-5.81-5.81zm-5.19 5.5c0 0.28-0.22 0.5-0.5 0.5h-1.5c-0.55 0-1 0.45-1 1v1.5c0 0.28-0.22 0.5-0.5 0.5h-2c-0.28 0-0.5-0.22-0.5-0.5v-1.5c0-2.21 1.79-4 4-4h1.5c0.28 0 0.5 0.22 0.5 0.5v2zm8 7.5c0 2.21-1.79 4-4 4h-1.5c-0.28 0-0.5-0.22-0.5-0.5v-2c0-0.28 0.22-0.5 0.5-0.5h1.5c0.55 0 1-0.45 1-1v-1.5c0-0.28 0.22-0.5 0.5-0.5h2c0.28 0 0.5 0.22 0.5 0.5v1.5z"/>
</svg>
